X:1
T:Title
%%score [ ( 1 2 ) ( 3 4 ) ] { ( 5 6 ) | ( 7 8 ) }
L:1/8
Q:1/4=120
M:4/4
K:Ab
V:1 treble nm="Midi_74"
V:2 treble 
V:3 bass nm="Midi_74"
V:4 bass 
V:5 treble nm="Org."
V:6 treble 
V:7 bass 
V:8 bass 
V:1
 c8 | B4 A4 | G8 || d8 | c4 =e4 | f4 A4 | G8 || G8 | A4 B4 | c8 || =A8 | B4 d4 | %12
"^John Camidge\n(1790-1859)" A4 G4 | F8 |] %14
V:2
 A8 | G4 F4 | =E8 || G8 | F4 B4 | A4 F4 | =E8 || =E8 | F4 G4 | A8 || F8 | F4 F4 | F4 =E4 | F8 |] %14
V:3
 C8 | C4 C4 | C8 || =E8 | F4 C4 | C4 =D4 | =E8 || C8 | C4 C4 | C8 || C8 | B,4 G,4 | F,4 B,4 | %13
 A,8 |] %14
V:4
 F,8 | (F,3 G,) (A,3 B,) | C8 || B,8 | A,4 G,4 | F,4 =B,,4 | C,8 || C,8 | (C3 B,) (A,3 G,) | F,8 || %10
 E,8 | D,4 B,,4 | C,4 C,4 | F,8 |] %14
V:5
 c8 | B4 A4 | G8 || d8 | c4 =e4 | f4 A4 | G8 || G8 | A4 B4 | c8 || =A8 | B4 d4 | A4 G4 | F8 |] %14
V:6
 A8 | G4 F4 | =E8 || =E8 | F4 B4 | A4 F4 | =E8 || =E8 | F4 G4 | A8 || [CF]8 | [B,F]4 F4 | %12
 [CF]4 [B,C=E]4 | [CF]8 |] %14
V:7
 x8 | x8 | x8 || x8 | x8 | x8 | x8 || x8 | x8 | x8 || x8 | x8 | x8 | A,8 |] %14
V:8
 [F,,F,]8 | [F,,F,]3 [G,,G,] [A,,A,]3 [B,,B,] | [C,C]8 || [B,,B,]8 | [A,,A,]4 [G,,G,]4 | %5
 [F,,F,]4 [=B,,=B,]4 | [C,C]8 || [C,C]8 | [C,C]3 [B,,B,] [A,,A,]3 [G,,G,] | [F,,F,]8 || [E,,E,]8 | %11
 [D,,D,]4 [B,,,B,,]4 | [C,,C,]4 [C,,C,]4 | F,8 |] %14

